content/culture/DIA.svg

<svg xmlns="http://www.w3.org/2000/svg" width="45" height="24" viewBox="0 0 45 24" fill="none">
  <g clip-path="url(#enofuiefzh-clip0_4610_39169)">
    <path d="M24.808 4.10156H18.2793V19.8766H24.808V4.10156Z" fill="black"/>
    <path d="M35.3561 4.10156L26.0879 19.9016H44.6499L35.3561 4.10156Z" fill="black"/>
    <path d="M8.06639 4H0.0527344V20H8.06639C12.5469 20 16.1569 16.35 16.1569 12C16.1569 7.65 12.5469 4 8.06639 4Z" fill="black"/>
  </g>
  <defs>
    <clipPath id="enofuiefzh-clip0_4610_39169">
      <rect width="44.6512" height="24" fill="white"/>
    </clipPath>
  </defs>
</svg>

<?xml version="1.0" encoding="utf-8"?>
<!-- Generator: Adobe Illustrator 27.7.0, SVG Export Plug-In . SVG Version: 6.00 Build 0)  -->
<svg version="1.1" id="Layer_1" xmlns="http://www.w3.org/2000/svg" xmlns:xlink="http://www.w3.org/1999/xlink" x="0px" y="0px"
	 viewBox="0 0 45 24" style="enable-background:new 0 0 45 24;" xml:space="preserve">
<style type="text/css">
	.st0{clip-path:url(#SVGID_00000003806790243342208780000008407575954632815542_);}
	.st1{fill:#FF3C00;}
</style>
<g>
	<defs>
		<rect id="SVGID_1_" width="44.7" height="24"/>
	</defs>
	<clipPath id="SVGID_00000099635615858200947630000012270713485347064452_">
		<use xlink:href="#SVGID_1_"  style="overflow:visible;"/>
	</clipPath>
	<g style="clip-path:url(#SVGID_00000099635615858200947630000012270713485347064452_);">
		<path class="st1" d="M24.8,4.1h-6.5v15.8h6.5V4.1z"/>
		<path class="st1" d="M35.4,4.1l-9.3,15.8h18.6L35.4,4.1z"/>
		<path class="st1" d="M8.1,4h-8v16h8c4.5,0,8.1-3.6,8.1-8S12.5,4,8.1,4z"/>
	</g>
</g>
</svg>
